src/pos-icons/blogger.svg

<svg height="24" viewBox="0 0 24 24" width="24" xmlns="http://www.w3.org/2000/svg"><path d="m12.5 10h-2.5c-.55 0-1-.45-1-1s.45-1 1-1h2.5c.55 0 1 .45 1 1s-.45 1-1 1m2.5 4c0-.55-.45-1-1-1h-4c-.55 0-1 .45-1 1s.45 1 1 1h4c.55 0 1-.45 1-1m7-10v16c0 1.11-.89 2-2 2h-16c-1.11 0-2-.89-2-2v-16c0-1.11.89-2 2-2h16c1.11 0 2 .89 2 2m-4 8s0-1-1-1c-.95.03-1-1-1-1v-2c0-1.66-1.34-3-3-3h-4c-1.66 0-3 1.34-3 3v7c0 1.66 1.34 3 3 3h6c1.66 0 3-1.34 3-3z"/></svg>

<?xml version="1.0" encoding="UTF-8"?><!DOCTYPE svg PUBLIC "-//W3C//DTD SVG 1.1//EN" "http://www.w3.org/Graphics/SVG/1.1/DTD/svg11.dtd"><svg xmlns="http://www.w3.org/2000/svg" xmlns:xlink="http://www.w3.org/1999/xlink" version="1.1" id="mdi-blogger" width="24" height="24" viewBox="0 0 24 24"><path d="M12.5 10H10C9.45 10 9 9.55 9 9C9 8.45 9.45 8 10 8H12.5C13.05 8 13.5 8.45 13.5 9C13.5 9.55 13.05 10 12.5 10M15 14C15 13.45 14.55 13 14 13H10C9.45 13 9 13.45 9 14C9 14.55 9.45 15 10 15H14C14.55 15 15 14.55 15 14M22 4V20C22 21.11 21.11 22 20 22H4C2.89 22 2 21.11 2 20V4C2 2.89 2.89 2 4 2H20C21.11 2 22 2.89 22 4M18 12C18 12 18 11 17 11C16.05 11.03 16 10 16 10L16 8C16 6.34 14.66 5 13 5H9C7.34 5 6 6.34 6 8V15C6 16.66 7.34 18 9 18H15C16.66 18 18 16.66 18 15L18 12Z" /></svg>
